; generated by PrusaSlicer 2.2.0+win64 on 2020-10-30 at 21:59:41 UTC

; 

; external perimeters extrusion width = 0.60mm
; perimeters extrusion width = 0.50mm
; infill extrusion width = 0.50mm
; solid infill extrusion width = 0.50mm
; top infill extrusion width = 0.45mm
; first layer extrusion width = 0.42mm

M73 P0 R66
M73 Q0 S67
M201 X1000 Y1000 Z200 E5000 ; sets maximum accelerations, mm/sec^2
M203 X200 Y200 Z12 E120 ; sets maximum feedrates, mm/sec
M204 P1250 R1250 T1250 ; sets acceleration (P, T) and retract acceleration (R), mm/sec^2
M205 X8.00 Y8.00 Z0.40 E4.50 ; sets the jerk limits, mm/sec
M205 S0 T0 ; sets the minimum extruding and travel feed rate, mm/sec
M107
M862.3 P "MK3S" ; printer model check
M862.1 P0.4 ; nozzle diameter check
M115 U3.9.1 ; tell printer latest fw version
G90 ; use absolute coordinates
M83 ; extruder relative mode
M104 S230 ; set extruder temp
M140 S60 ; set bed temp
M190 S60 ; wait for bed temp
M109 S230 ; wait for extruder temp
G28 W ; home all without mesh bed level
G80 ; mesh bed leveling
G1 Y-3.0 F1000.0 ; go outside print area
G92 E0.0
G1 X60.0 E9.0 F1000.0 ; intro line
M73 Q0 S66
M73 P0 R66
G1 X100.0 E12.5 F1000.0 ; intro line
G92 E0.0
M221 S95

; Don't change E values below. Excessive value can damage the printer.

M907 E538 ; set extruder motor current
G21 ; set units to millimeters
G90 ; use absolute coordinates
M83 ; use relative distances for extrusion
M900 K0.06 ; Filament gcode LA 1.5
M900 K30 ; Filament gcode LA 1.0
;BEFORE_LAYER_CHANGE
G92 E0.0
;0.2


G1 E-2.00000 F2100.00000
G1 Z0.400 F10800.000
;AFTER_LAYER_CHANGE
;0.2
G1 X90.973 Y56.867
G1 Z0.200
G1 E2.00000 F2100.00000
M204 S1000
G1 F1200.000
G1 X91.260 Y56.250 E0.02130
G1 X91.632 Y55.809 E0.01811
G1 X92.103 Y55.468 E0.01823
G1 X92.639 Y55.253 E0.01811
G1 X93.211 Y55.173 E0.01811
G1 X156.754 Y55.173 E1.99235
G1 X157.652 Y55.351 E0.02872
G1 X158.414 Y55.853 E0.02860
G1 X158.932 Y56.608 E0.02872
G1 X159.127 Y57.503 E0.02872
G1 X159.127 Y152.461 E2.97735
G1 X159.027 Y153.133 E0.02130
G1 X158.740 Y153.750 E0.02130
G1 X158.363 Y154.196 E0.01835
G1 X157.890 Y154.536 E0.01823
G1 X157.350 Y154.750 E0.01823
G1 X156.774 Y154.827 E0.01823
G1 X93.235 Y154.827 E1.99223
G1 X92.563 Y154.726 E0.02130
G1 X91.950 Y154.440 E0.02119
G1 X91.504 Y154.063 E0.01835
G1 X91.164 Y153.590 E0.01823
G1 X90.949 Y153.046 E0.01835
G1 X90.873 Y152.466 E0.01835
G1 X90.873 Y57.539 E2.97639
G1 X90.964 Y56.926 E0.01942
G1 F8640.000
G1 X91.260 Y56.250 E-0.17023
G1 X91.632 Y55.809 E-0.13336
G1 X92.103 Y55.468 E-0.13423
G1 X92.639 Y55.253 E-0.13336
G1 X93.211 Y55.173 E-0.13336
G1 X98.388 Y55.173 E-1.19548
G1 E-0.10000 F2100.00000
G1 Z0.600 F10800.000
G1 X126.671 Y139.484
G1 Z0.200
G1 E2.00000 F2100.00000
G1 F1200.000
G1 X127.708 Y139.091 E0.03479
G1 X128.762 Y138.963 E0.03329
G1 X147.908 Y138.963 E0.60028
G1 X148.962 Y139.091 E0.03329
G1 X149.999 Y139.484 E0.03479
G1 X150.912 Y140.115 E0.03479
G1 X151.648 Y140.945 E0.03479
G1 X152.164 Y141.928 E0.03479
G1 X152.429 Y143.005 E0.03479
G1 X152.429 Y144.115 E0.03479
G1 X152.164 Y145.192 E0.03479
G1 X151.648 Y146.175 E0.03479
G1 X150.912 Y147.005 E0.03479
G1 X149.999 Y147.636 E0.03479
G1 X148.962 Y148.029 E0.03479
G1 X147.908 Y148.157 E0.03329
G1 X128.762 Y148.157 E0.60028
G1 X127.708 Y148.029 E0.03329
G1 X126.671 Y147.636 E0.03479
G1 X125.758 Y147.005 E0.03479
G1 X125.022 Y146.175 E0.03479
G1 X124.506 Y145.192 E0.03479
G1 X124.241 Y144.115 E0.03479
G1 X124.241 Y143.005 E0.03479
G1 X124.506 Y141.928 E0.03479
G1 X125.022 Y140.945 E0.03479
G1 X125.758 Y140.115 E0.03479
G1 X126.622 Y139.518 E0.03291
G1 X126.836 Y139.829 F10800.000
G1 F1200.000
G1 X127.799 Y139.460 E0.03235
G1 X128.785 Y139.340 E0.03114
G1 X147.885 Y139.340 E0.59885
G1 X148.871 Y139.460 E0.03114
G1 X149.823 Y139.821 E0.03192
G1 X150.660 Y140.399 E0.03192
G1 X151.335 Y141.161 E0.03192
G1 X151.809 Y142.063 E0.03192
G1 X152.052 Y143.051 E0.03192
G1 X152.052 Y144.069 E0.03192
G1 X151.809 Y145.057 E0.03192
G1 X151.335 Y145.959 E0.03192
G1 X150.660 Y146.721 E0.03192
G1 X149.823 Y147.299 E0.03192
G1 X148.871 Y147.660 E0.03192
G1 X147.885 Y147.780 E0.03114
G1 X128.785 Y147.780 E0.59885
G1 X127.799 Y147.660 E0.03114
G1 X126.847 Y147.299 E0.03192
G1 X126.010 Y146.721 E0.03192
G1 X125.334 Y145.959 E0.03192
G1 X124.861 Y145.057 E0.03192
G1 X124.618 Y144.069 E0.03192
G1 X124.618 Y143.051 E0.03192
G1 X124.861 Y142.063 E0.03192
G1 X125.334 Y141.161 E0.03192
G1 X126.010 Y140.399 E0.03192
G1 X126.786 Y139.863 E0.02959
G1 X126.851 Y139.429 F10800.000
G1 F8640.000
G1 X127.799 Y139.460 E-0.25174
G1 X128.785 Y139.340 E-0.22930
G1 X134.930 Y139.340 E-1.41895
G1 E-0.10000 F2100.00000
G1 Z0.600 F10800.000
G1 X155.963 Y151.663
G1 Z0.200
G1 E2.00000 F2100.00000
G1 F1200.000
G1 X94.037 Y151.663 E1.94164
G1 X94.037 Y108.787 E1.34434
G1 X155.963 Y108.787 E1.94164
G1 X155.963 Y151.603 E1.34246
G1 X156.340 Y152.040 F10800.000
G1 F1200.000
G1 X93.660 Y152.040 E1.96529
G1 X93.660 Y108.410 E1.36799
G1 X156.340 Y108.410 E1.96529
G1 X156.340 Y151.980 E1.36611
G1 X155.948 Y151.959 F10800.000
G1 F8640.000
G1 X148.111 Y151.988 E-1.90000
G1 E-0.10000 F2100.00000
G1 Z0.600 F10800.000
G1 X129.724 Y151.550
G1 Z0.200
G1 E2.00000 F2100.00000
G1 F1200.000
G1 X94.320 Y116.146 E1.57647
G1 X94.320 Y116.681 E0.01686
G1 X129.019 Y151.380 E1.54507
G1 X128.483 Y151.380 E0.01686
G1 X94.320 Y117.217 E1.52122
G1 X94.320 Y117.752 E0.01686
G1 X127.948 Y151.380 E1.49738
M73 Q1 S65
G1 X127.412 Y151.380 E0.01686
G1 X94.320 Y118.288 E1.47353
M73 P1 R65
G1 X94.320 Y118.823 E0.01686
G1 X126.877 Y151.380 E1.44969
G1 X126.341 Y151.380 E0.01686
G1 X94.320 Y119.359 E1.42584
G1 X94.320 Y119.894 E0.01686
G1 X125.806 Y151.380 E1.40200
G1 X125.270 Y151.380 E0.01686
G1 X94.320 Y120.430 E1.37815
G1 X94.320 Y120.965 E0.01686
G1 X124.735 Y151.380 E1.35431
G1 X124.199 Y151.380 E0.01686
G1 X94.320 Y121.501 E1.33046
G1 X94.320 Y122.036 E0.01686
G1 X123.664 Y151.380 E1.30662
G1 X123.128 Y151.380 E0.01686
G1 X94.320 Y122.572 E1.28277
G1 X94.320 Y123.107 E0.01686
G1 X122.593 Y151.380 E1.25893
G1 X122.057 Y151.380 E0.01686
G1 X94.320 Y123.643 E1.23508
G1 X94.320 Y124.178 E0.01686
G1 X121.522 Y151.380 E1.21124
G1 X120.986 Y151.380 E0.01686
G1 X94.320 Y124.714 E1.18739
G1 X94.320 Y125.249 E0.01686
G1 X120.451 Y151.380 E1.16355
G1 X119.915 Y151.380 E0.01686
G1 X94.320 Y125.785 E1.13970
G1 X94.320 Y126.320 E0.01686
G1 X119.380 Y151.380 E1.11586
G1 X118.844 Y151.380 E0.01686
G1 X94.320 Y126.856 E1.09201
G1 X94.320 Y127.391 E0.01686
G1 X118.309 Y151.380 E1.06817
G1 X117.773 Y151.380 E0.01686
G1 X94.320 Y127.927 E1.04432
G1 X94.320 Y128.462 E0.01686
G1 X117.238 Y151.380 E1.02048
G1 X116.702 Y151.380 E0.01686
G1 X94.320 Y128.998 E0.99663
G1 X94.320 Y129.533 E0.01686
G1 X116.167 Y151.380 E0.97279
G1 X115.631 Y151.380 E0.01686
G1 X94.320 Y130.069 E0.94894
G1 X94.320 Y130.604 E0.01686
G1 X115.096 Y151.380 E0.92509
G1 X114.560 Y151.380 E0.01686
G1 X94.320 Y131.140 E0.90125
G1 X94.320 Y131.676 E0.01686
G1 X114.024 Y151.380 E0.87740
G1 X113.489 Y151.380 E0.01686
G1 X94.320 Y132.211 E0.85356
G1 X94.320 Y132.747 E0.01686
G1 X112.953 Y151.380 E0.82971
G1 X112.418 Y151.380 E0.01686
G1 X94.320 Y133.282 E0.80587
G1 X94.320 Y133.818 E0.01686
G1 X111.882 Y151.380 E0.78202
G1 X111.347 Y151.380 E0.01686
G1 X94.320 Y134.353 E0.75818
G1 X94.320 Y134.889 E0.01686
G1 X110.811 Y151.380 E0.73433
G1 X110.276 Y151.380 E0.01686
G1 X94.320 Y135.424 E0.71049
G1 X94.320 Y135.960 E0.01686
G1 X109.740 Y151.380 E0.68664
G1 X109.205 Y151.380 E0.01686
G1 X94.320 Y136.495 E0.66280
M73 Q3 S64
G1 X94.320 Y137.031 E0.01686
G1 X108.669 Y151.380 E0.63895
G1 X108.134 Y151.380 E0.01686
G1 X94.320 Y137.566 E0.61511
M73 P3 R64
G1 X94.320 Y138.102 E0.01686
G1 X107.598 Y151.380 E0.59126
G1 X107.063 Y151.380 E0.01686
G1 X94.320 Y138.637 E0.56742
G1 X94.320 Y139.173 E0.01686
G1 X106.527 Y151.380 E0.54357
G1 X105.992 Y151.380 E0.01686
G1 X94.320 Y139.708 E0.51973
G1 X94.320 Y140.244 E0.01686
G1 X105.456 Y151.380 E0.49588
G1 X104.921 Y151.380 E0.01686
G1 X94.320 Y140.779 E0.47204
G1 X94.320 Y141.315 E0.01686
G1 X104.385 Y151.380 E0.44819
G1 X103.850 Y151.380 E0.01686
G1 X94.320 Y141.850 E0.42435
G1 X94.320 Y142.386 E0.01686
G1 X103.314 Y151.380 E0.40050
G1 X102.779 Y151.380 E0.01686
G1 X94.320 Y142.921 E0.37666
G1 X94.320 Y143.457 E0.01686
G1 X102.243 Y151.380 E0.35281
G1 X101.708 Y151.380 E0.01686
G1 X94.320 Y143.992 E0.32897
G1 X94.320 Y144.528 E0.01686
G1 X101.172 Y151.380 E0.30512
G1 X100.637 Y151.380 E0.01686
G1 X94.320 Y145.063 E0.28128
G1 X94.320 Y145.599 E0.01686
G1 X100.101 Y151.380 E0.25743
G1 X99.566 Y151.380 E0.01686
G1 X94.320 Y146.134 E0.23359
G1 X94.320 Y146.670 E0.01686
G1 X99.030 Y151.380 E0.20974
G1 X98.495 Y151.380 E0.01686
G1 X94.320 Y147.205 E0.18590
G1 X94.320 Y147.741 E0.01686
G1 X97.959 Y151.380 E0.16205
G1 X97.424 Y151.380 E0.01686
G1 X94.320 Y148.276 E0.13821
G1 X94.320 Y148.812 E0.01686
G1 X96.888 Y151.380 E0.11436
G1 X96.353 Y151.380 E0.01686
G1 X94.320 Y149.347 E0.09052
G1 X94.320 Y149.883 E0.01686
G1 X95.817 Y151.380 E0.06667
G1 X95.282 Y151.380 E0.01686
G1 X94.320 Y150.418 E0.04282
G1 X94.320 Y150.954 E0.01686
G1 X94.916 Y151.550 E0.02654
G1 F8640.000
G1 X94.320 Y150.954 E-0.19460
G1 X94.320 Y150.418 E-0.12365
G1 X95.282 Y151.380 E-0.31406
G1 X95.817 Y151.380 E-0.12365
G1 X94.320 Y149.883 E-0.48893
G1 X94.320 Y149.347 E-0.12365
G1 X95.947 Y150.975 E-0.53146
G1 E-0.10000 F2100.00000
G1 Z0.600 F10800.000
G1 X119.740 Y108.900
G1 Z0.200
G1 E2.00000 F2100.00000
G1 F1200.000
G1 X150.036 Y139.196 E1.34901
G1 X149.174 Y138.869 E0.02905
G1 X119.375 Y109.070 E1.32689
G1 X118.839 Y109.070 E0.01686
G1 X148.522 Y138.753 E1.32171
G1 X147.914 Y138.680 E0.01928
G1 X118.304 Y109.070 E1.31848
G1 X117.768 Y109.070 E0.01686
G1 X147.378 Y138.680 E1.31848
G1 X146.843 Y138.680 E0.01686
G1 X117.233 Y109.070 E1.31848
G1 X116.697 Y109.070 E0.01686
G1 X146.307 Y138.680 E1.31848
G1 X145.772 Y138.680 E0.01686
G1 X116.162 Y109.070 E1.31848
G1 X115.626 Y109.070 E0.01686
G1 X145.236 Y138.680 E1.31848
G1 X144.701 Y138.680 E0.01686
G1 X115.091 Y109.070 E1.31848
G1 X114.555 Y109.070 E0.01686
G1 X144.165 Y138.680 E1.31848
G1 X143.630 Y138.680 E0.01686
G1 X114.020 Y109.070 E1.31848
G1 X113.484 Y109.070 E0.01686
G1 X143.094 Y138.680 E1.31848
G1 X142.559 Y138.680 E0.01686
G1 X112.949 Y109.070 E1.31848
G1 X112.413 Y109.070 E0.01686
G1 X142.023 Y138.680 E1.31848
G1 X141.488 Y138.680 E0.01686
G1 X111.878 Y109.070 E1.31848
G1 X111.342 Y109.070 E0.01686
G1 X140.952 Y138.680 E1.31848
G1 X140.417 Y138.680 E0.01686
G1 X110.807 Y109.070 E1.31848
G1 X110.271 Y109.070 E0.01686
G1 X139.881 Y138.680 E1.31848
G1 X139.346 Y138.680 E0.01686
G1 X109.735 Y109.070 E1.31848
G1 X109.200 Y109.070 E0.01686
G1 X138.810 Y138.680 E1.31848
M73 Q4 S63
G1 X138.275 Y138.680 E0.01686
G1 X108.664 Y109.070 E1.31848
M73 P4 R63
G1 X108.129 Y109.070 E0.01686
G1 X137.739 Y138.680 E1.31848
G1 X137.204 Y138.680 E0.01686
G1 X107.593 Y109.070 E1.31848
G1 X107.058 Y109.070 E0.01686
G1 X136.668 Y138.680 E1.31848
G1 X136.133 Y138.680 E0.01686
G1 X106.522 Y109.070 E1.31848
G1 X105.987 Y109.070 E0.01686
G1 X135.597 Y138.680 E1.31848
G1 X135.062 Y138.680 E0.01686
G1 X105.451 Y109.070 E1.31848
G1 X104.916 Y109.070 E0.01686
G1 X134.526 Y138.680 E1.31848
G1 X133.991 Y138.680 E0.01686
G1 X104.380 Y109.070 E1.31848
G1 X103.845 Y109.070 E0.01686
G1 X133.455 Y138.680 E1.31848
G1 X132.920 Y138.680 E0.01686
G1 X103.309 Y109.070 E1.31848
G1 X102.774 Y109.070 E0.01686
G1 X132.384 Y138.680 E1.31848
G1 X131.849 Y138.680 E0.01686
G1 X102.238 Y109.070 E1.31848
G1 X101.703 Y109.070 E0.01686
G1 X131.313 Y138.680 E1.31848
G1 X130.778 Y138.680 E0.01686
G1 X101.167 Y109.070 E1.31848
G1 X100.632 Y109.070 E0.01686
G1 X130.242 Y138.680 E1.31848
G1 X129.707 Y138.680 E0.01686
G1 X100.096 Y109.070 E1.31848
G1 X99.561 Y109.070 E0.01686
G1 X129.171 Y138.680 E1.31848
G1 X128.647 Y138.692 E0.01649
G1 X99.025 Y109.070 E1.31901
G1 X98.490 Y109.070 E0.01686
G1 X128.170 Y138.750 E1.32159
G1 X127.692 Y138.808 E0.01515
G1 X97.954 Y109.070 E1.32417
G1 X97.419 Y109.070 E0.01686
G1 X127.294 Y138.945 E1.33030
G1 X126.906 Y139.093 E0.01307
G1 X96.883 Y109.070 E1.33685
G1 X96.348 Y109.070 E0.01686
G1 X126.522 Y139.244 E1.34358
G1 X126.205 Y139.462 E0.01212
G1 X95.812 Y109.070 E1.35332
G1 X95.277 Y109.070 E0.01686
G1 X125.888 Y139.681 E1.36306
G1 X125.571 Y139.900 E0.01212
G1 X94.741 Y109.070 E1.37279
G1 X94.320 Y109.070 E0.01327
G1 X94.320 Y109.184 E0.00360
G1 X125.319 Y140.183 E1.38033
M73 Q6 S62
G1 X125.068 Y140.467 E0.01194
G1 X94.320 Y109.720 E1.36913
M73 P6 R62
G1 X94.320 Y110.255 E0.01686
G1 X124.816 Y140.751 E1.35793
G1 X124.624 Y141.095 E0.01239
G1 X94.320 Y110.791 E1.34938
G1 X94.320 Y111.326 E0.01686
G1 X124.440 Y141.446 E1.34117
G1 X124.255 Y141.797 E0.01249
G1 X94.320 Y111.862 E1.33297
G1 X94.320 Y112.397 E0.01686
G1 X124.143 Y142.220 E1.32796
G1 X124.037 Y142.650 E0.01393
G1 X94.320 Y112.933 E1.32324
G1 X94.320 Y113.468 E0.01686
G1 X123.958 Y143.106 E1.31972
G1 X123.958 Y143.642 E0.01686
G1 X94.320 Y114.004 E1.31972
G1 X94.320 Y114.539 E0.01686
G1 X123.967 Y144.186 E1.32013
G1 X124.142 Y144.897 E0.02305
G1 X94.320 Y115.075 E1.32793
G1 X94.320 Y115.610 E0.01686
G1 X124.502 Y145.792 E1.34393
G1 X124.787 Y146.337 E0.01936
G1 X125.569 Y147.219 E0.03710
G1 X126.539 Y147.888 E0.03710
G1 X126.634 Y147.924 E0.00320
G1 X130.090 Y151.380 E0.15390
G1 X130.625 Y151.380 E0.01686
G1 X127.496 Y148.251 E0.13933
G1 X127.640 Y148.306 E0.00485
G1 X128.148 Y148.367 E0.01611
G1 X131.161 Y151.380 E0.13415
G1 X131.696 Y151.380 E0.01686
G1 X128.756 Y148.440 E0.13092
G1 X129.292 Y148.440 E0.01686
G1 X132.232 Y151.380 E0.13092
G1 X132.767 Y151.380 E0.01686
G1 X129.827 Y148.440 E0.13092
G1 X130.363 Y148.440 E0.01686
G1 X133.303 Y151.380 E0.13092
G1 X133.838 Y151.380 E0.01686
G1 X130.898 Y148.440 E0.13092
G1 X131.434 Y148.440 E0.01686
G1 X134.374 Y151.380 E0.13092
G1 X134.909 Y151.380 E0.01686
G1 X131.969 Y148.440 E0.13092
G1 X132.505 Y148.440 E0.01686
G1 X135.445 Y151.380 E0.13092
G1 X135.980 Y151.380 E0.01686
G1 X133.040 Y148.440 E0.13092
G1 X133.576 Y148.440 E0.01686
G1 X136.516 Y151.380 E0.13092
G1 X137.051 Y151.380 E0.01686
G1 X134.111 Y148.440 E0.13092
G1 X134.647 Y148.440 E0.01686
G1 X137.587 Y151.380 E0.13092
G1 X138.122 Y151.380 E0.01686
G1 X135.182 Y148.440 E0.13092
G1 X135.718 Y148.440 E0.01686
G1 X138.658 Y151.380 E0.13092
G1 X139.193 Y151.380 E0.01686
G1 X136.253 Y148.440 E0.13092
G1 X136.789 Y148.440 E0.01686
G1 X139.729 Y151.380 E0.13092
G1 X140.264 Y151.380 E0.01686
G1 X137.324 Y148.440 E0.13092
G1 X137.860 Y148.440 E0.01686
G1 X140.800 Y151.380 E0.13092
G1 X141.336 Y151.380 E0.01686
G1 X138.395 Y148.440 E0.13092
G1 X138.931 Y148.440 E0.01686
G1 X141.871 Y151.380 E0.13092
G1 X142.407 Y151.380 E0.01686
G1 X139.466 Y148.440 E0.13092
G1 X140.002 Y148.440 E0.01686
G1 X142.942 Y151.380 E0.13092
G1 X143.478 Y151.380 E0.01686
G1 X140.537 Y148.440 E0.13092
G1 X141.073 Y148.440 E0.01686
G1 X144.013 Y151.380 E0.13092
G1 X144.549 Y151.380 E0.01686
G1 X141.608 Y148.440 E0.13092
G1 X142.144 Y148.440 E0.01686
G1 X145.084 Y151.380 E0.13092
G1 X145.620 Y151.380 E0.01686
G1 X142.679 Y148.440 E0.13092
G1 X143.215 Y148.440 E0.01686
G1 X146.155 Y151.380 E0.13092
G1 X146.691 Y151.380 E0.01686
G1 X143.750 Y148.440 E0.13092
G1 X144.286 Y148.440 E0.01686
G1 X147.226 Y151.380 E0.13092
G1 X147.762 Y151.380 E0.01686
G1 X144.821 Y148.440 E0.13092
G1 X145.357 Y148.440 E0.01686
G1 X148.297 Y151.380 E0.13092
G1 X148.833 Y151.380 E0.01686
G1 X145.892 Y148.440 E0.13092
G1 X146.428 Y148.440 E0.01686
G1 X149.368 Y151.380 E0.13092
G1 X149.904 Y151.380 E0.01686
G1 X146.963 Y148.440 E0.13092
G1 X147.499 Y148.440 E0.01686
G1 X150.439 Y151.380 E0.13092
G1 X150.975 Y151.380 E0.01686
G1 X148.023 Y148.428 E0.13145
G1 X148.500 Y148.370 E0.01515
G1 X151.510 Y151.380 E0.13403
G1 X152.046 Y151.380 E0.01686
G1 X148.978 Y148.312 E0.13662
G1 X149.376 Y148.175 E0.01326
G1 X152.581 Y151.380 E0.14274
G1 X153.117 Y151.380 E0.01686
G1 X149.764 Y148.027 E0.14930
G1 X150.148 Y147.876 E0.01301
G1 X153.652 Y151.380 E0.15602
G1 X154.188 Y151.380 E0.01686
G1 X150.465 Y147.658 E0.16576
